src/pos-icons/face-agent.svg

<svg height="24" viewBox="0 0 24 24" width="24" xmlns="http://www.w3.org/2000/svg"><path d="m18.72 14.76c.35-.85.54-1.76.54-2.76 0-.72-.11-1.41-.3-2.05-.65.15-1.33.23-2.04.23-3.06 0-5.77-1.51-7.42-3.84-.89 2.16-2.59 3.92-4.73 4.88-.04.25-.04.52-.04.78a7.27 7.27 0 0 0 7.27 7.27c1.05 0 2.06-.23 2.97-.64.57 1.09.83 1.63.81 1.63-1.64.55-2.91.82-3.78.82-2.42 0-4.73-.95-6.43-2.66-1.04-1.04-1.81-2.31-2.24-3.69h-1.33v-4.55h1.09c.84-4.14 4.51-7.26 8.91-7.26 2.4 0 4.71.95 6.42 2.66 1.27 1.26 2.12 2.87 2.47 4.6h1.11v4.49.02.04h-.06l-3.56 3.27-5.3-.6v-1.67h4.83zm-9.45-2.99c.3 0 .59.12.8.34.21.21.33.5.33.8s-.12.59-.33.8-.5.33-.8.33c-.63 0-1.14-.5-1.14-1.13s.51-1.14 1.14-1.14m5.45 0c.63 0 1.13.51 1.13 1.14s-.5 1.13-1.13 1.13-1.14-.5-1.14-1.13a1.14 1.14 0 0 1 1.14-1.14z"/></svg>

<?xml version="1.0" encoding="UTF-8"?><!DOCTYPE svg PUBLIC "-//W3C//DTD SVG 1.1//EN" "http://www.w3.org/Graphics/SVG/1.1/DTD/svg11.dtd"><svg xmlns="http://www.w3.org/2000/svg" xmlns:xlink="http://www.w3.org/1999/xlink" version="1.1" id="mdi-face-agent" width="24" height="24" viewBox="0 0 24 24"><path d="M18.72,14.76C19.07,13.91 19.26,13 19.26,12C19.26,11.28 19.15,10.59 18.96,9.95C18.31,10.1 17.63,10.18 16.92,10.18C13.86,10.18 11.15,8.67 9.5,6.34C8.61,8.5 6.91,10.26 4.77,11.22C4.73,11.47 4.73,11.74 4.73,12A7.27,7.27 0 0,0 12,19.27C13.05,19.27 14.06,19.04 14.97,18.63C15.54,19.72 15.8,20.26 15.78,20.26C14.14,20.81 12.87,21.08 12,21.08C9.58,21.08 7.27,20.13 5.57,18.42C4.53,17.38 3.76,16.11 3.33,14.73H2V10.18H3.09C3.93,6.04 7.6,2.92 12,2.92C14.4,2.92 16.71,3.87 18.42,5.58C19.69,6.84 20.54,8.45 20.89,10.18H22V14.67H22V14.69L22,14.73H21.94L18.38,18L13.08,17.4V15.73H17.91L18.72,14.76M9.27,11.77C9.57,11.77 9.86,11.89 10.07,12.11C10.28,12.32 10.4,12.61 10.4,12.91C10.4,13.21 10.28,13.5 10.07,13.71C9.86,13.92 9.57,14.04 9.27,14.04C8.64,14.04 8.13,13.54 8.13,12.91C8.13,12.28 8.64,11.77 9.27,11.77M14.72,11.77C15.35,11.77 15.85,12.28 15.85,12.91C15.85,13.54 15.35,14.04 14.72,14.04C14.09,14.04 13.58,13.54 13.58,12.91A1.14,1.14 0 0,1 14.72,11.77Z" /></svg>
